components/Icon/icons/sass.svg

<svg width="50" height="50" viewBox="0 0 50 50" fill="none" xmlns="http://www.w3.org/2000/svg">
<path d="M25.2671 29.2188C24.5156 29.5641 23.6921 30.0141 22.0437 30.9188C21.4187 31.2703 20.7656 31.6219 20.1578 31.9531C20.1156 31.911 20.0718 31.8578 20.0296 31.8141C16.7687 28.3297 10.7375 25.8688 10.9937 21.1891C11.089 19.4844 11.675 15.0094 22.5765 9.57502C31.5484 5.15315 38.6875 6.37815 39.9203 9.09533C41.6921 12.9688 36.0937 20.1766 26.8281 21.2219C25.8026 21.4299 24.7435 21.4048 23.729 21.1484C22.7145 20.892 21.7707 20.4109 20.9671 19.7406C20.4765 19.2078 20.4031 19.1766 20.2218 19.2828C19.9234 19.4391 20.1156 19.9219 20.2218 20.1985C20.5753 20.8384 21.0534 21.4009 21.628 21.8529C22.2026 22.3048 22.862 22.637 23.5671 22.8297C27.2134 23.6178 31.0151 23.2413 34.4359 21.7531C40.0515 19.5797 44.4359 13.5375 43.1515 8.4719C41.8625 3.33596 33.3375 1.64221 25.2718 4.50783C20.2207 6.21001 15.5539 8.88957 11.5375 12.3938C7.09371 16.55 6.39058 20.1625 6.67808 21.675C7.71246 27.0453 15.1156 30.5406 18.0843 33.1297C17.9281 33.2156 17.7968 33.286 17.6796 33.3531C16.1984 34.0891 10.5515 37.0406 9.14371 40.1625C7.54527 43.7 9.39996 46.236 10.625 46.5766C12.471 47.0188 14.4091 46.8734 16.1686 46.1608C17.928 45.4482 19.421 44.2038 20.439 42.6016C21.3035 41.2729 21.8344 39.7552 21.9864 38.1774C22.1385 36.5996 21.9073 35.0084 21.3125 33.5391C21.6634 33.2592 22.0377 33.0098 22.4312 32.7938C23.1875 32.3469 23.9078 31.9063 24.5468 31.5656C26.7349 30.5407 29.1228 30.013 31.539 30.0203C36.6109 30.6172 37.6125 33.7813 37.4203 35.1141C37.3304 35.587 37.1402 36.0351 36.8626 36.4283C36.585 36.8215 36.2264 37.1507 35.8109 37.3938C35.4593 37.6172 35.3421 37.6922 35.3734 37.8516C35.4156 38.086 35.5859 38.075 35.8843 38.0328C36.6463 37.792 37.3177 37.3263 37.8102 36.6969C38.3026 36.0675 38.5932 35.3038 38.6437 34.5063C38.8 31.3813 35.8203 27.9531 30.5453 27.9844C28.9658 27.9871 27.4021 28.2987 25.9421 28.9016C25.7078 28.9985 25.4802 29.1026 25.2593 29.2141L25.2671 29.2188ZM17.7281 41.4672C16.0437 43.3 13.7 43.9922 12.6875 43.4063C11.5937 42.7813 12.0265 40.0703 14.0937 38.1313C15.318 37.0282 16.6413 36.0401 18.0468 35.1797C18.2921 35.0235 18.6546 34.8172 19.0906 34.5547L19.2078 34.4906L19.464 34.3344C19.8327 35.5705 19.8662 36.8824 19.5612 38.1357C19.2562 39.389 18.6236 40.5388 17.7281 41.4672V41.4672Z" fill="#CD6799"/>
</svg>

<svg xmlns="http://www.w3.org/2000/svg" width="100%" height="100%" fill="none" 
viewBox="0 0 50 50" xmlns:v="https://vecta.io/nano"><path d="M25.267 29.219c-.751.345-1.575.795-3.223 1.7l-1.886 1.034-.128-.139c-3.261-3.484-9.292-5.945-9.036-10.625.095-1.705.681-6.18 11.583-11.614 8.972-4.422 16.111-3.197 17.344-.48 1.772 3.873-3.827 11.081-13.092 12.127-1.025.208-2.085.183-3.099-.074s-1.958-.737-2.762-1.408c-.491-.533-.564-.564-.745-.458-.298.156-.106.639 0 .916a5.47 5.47 0 0 0 3.345 2.631 17.81 17.81 0 0 0 10.869-1.077c5.616-2.173 10-8.216 8.716-13.281-1.289-5.136-9.814-6.83-17.88-3.964-5.051 1.702-9.718 4.382-13.734 7.886-4.444 4.156-5.147 7.769-4.859 9.281 1.034 5.37 8.438 8.866 11.406 11.455l-.405.223c-1.481.736-7.128 3.688-8.536 6.809-1.598 3.538.256 6.073 1.481 6.414 1.846.442 3.784.297 5.544-.416s3.252-1.957 4.27-3.559c.864-1.329 1.395-2.846 1.547-4.424s-.079-3.169-.674-4.638c.351-.28.725-.529 1.119-.745.756-.447 1.477-.887 2.116-1.228a16.37 16.37 0 0 1 6.992-1.545c5.072.597 6.073 3.761 5.881 5.094a3.37 3.37 0 0 1-1.609 2.28c-.352.223-.469.298-.437.458.042.234.213.223.511.181a3.96 3.96 0 0 0 2.759-3.526c.156-3.125-2.823-6.553-8.098-6.522-1.579.003-3.143.314-4.603.917-.234.097-.462.201-.683.313l.008.005zm-7.539 12.248c-1.684 1.833-4.028 2.525-5.041 1.939-1.094-.625-.661-3.336 1.406-5.275 1.224-1.103 2.548-2.091 3.953-2.952.245-.156.608-.362 1.044-.625l.117-.064.256-.156a7.28 7.28 0 0 1 .097 3.801c-.305 1.253-.938 2.403-1.833 3.331h0z" fill="#cd6799"/></svg>
